X: 8648
T: Cros An Lomanaigh
R: reel
M: 4/4
K: Gmajor
GF|:DG~ G2 BcBA|GBdB cA F2|DG ~G2 AGAB|cBAG FGAF|
DGGA BdBA|GBdB c2 Bc|(3dcB (3cBA BcAG|FGAc BG G2:|
|:dg ~g2 bg ~g2|defg afge|dg ~g2 dg ~g2|fdcA BG G2|
dg ~g2 bg ~g2|defg afge|dg ~g2 dg ~g2|(3gab ag fdcA:|

